X:0413
M:2/4
L:1/8
Q:1/4=120
P:ABA
K:G
P:A
d|  B(B/c/) .B.B|d2 TcB|(AG)(AB)|(G/F/G/A/) .Gc|\
    B(B/c/) .B.B|d2 TcB|(AG)(AB)| G2         G:|
P:B
  (TAG)(AB)     |c2  Bd| cBAG   | d2-        d|]

